X:201
T:Eagle's Whistle
M:2/4
L:1/8
K:G
|:G/|"G"BB d/B/A/G/|"Em"BB e/B/A/G/|"G"BGG B/G/|"Em"BGG B/G/|\
"G"BB d/B/A/G/|"Em"BB e/B/A/G/|EGG G3/4A//|EG/G/ "G"G3/2:|
|:d/|"Em"e/d/e/f/ ed/B/|"G"d/B/d/g/ dB/A/|"C"eg "G"d/B/A/G/|\
"D"BAA B/G/|"Em"e/d/e/f/ ed/B/|"G"d/B/d/g/ dB/A/|\
"Em"Bg/e/ "G"d/B/A/G/|"Em"EG/G/ "G"G:|
